X: 1
T: R\ua\vcenica
O: Bulgaria
Z: John Chambers <jc@trillian.mit.edu>
M: 7/8
L: 1/8
P: ABAB CDEF ABAB
K: G
"A"\
|: "G"D2 G2 G3 | "D7"Bc d2-d3 | cd c2 ~B3 | "G"A2 G2-G3 \
|  "C"Bc cd "D7"~B3 | "G"A2 G2-G3 | "D7"GA AB ~A3 | "G"GF G2-G3 :|
"B"\
|: "C"{B}c2 cG edc | "G"~B2 Bd "D7"cBA | "G"~B2 Bd "D7"cBA |1,3 cB AB "G"GAB :|2,4 "G"~G2 GD "^fine"Gz2 :|
"C"\
|: "D"de fg gfe | ~f2 ed c~d2 | "D7"~d2 cd cBA | "G"Bc ~d2 ~d2G \
|  "D"de fg gfe | ~f2 ed c~d2 | "D7"Bc ~d2 cBA | "G"~B2 BG ~B2G :|
"D"\
|::: "D"~d2 cd cBA | Bc d_e ~d2c | Bc d_e ~d2c |1-3 "D7"dc BA "G"~B2G ::|4 "D7"dc BA "G"Bz2 |: "(G)"{c}d7 :|
"E"\
|: "G"FG cB BAB | cD ~B2 BAG | FG cB BAB | cD ~B2 ~B3 \
|  FG cB BAB | cD ~B2 BAG | cD ~B2 BAG | ~G2 GD Gz2 :|
"F"\
|: "G"cd ~B2 BAG | ~G2 GD GAB | cd ~B2 BAG |1,3 cd dD "D7"dDD :|2 "G"~G2 GD GDD :|4 "G"~G2 GD Gz2 :|
%%sep 1 1 8cm
